;FLAVOR:Marlin
;TIME:7733
;Filament used: 7.01295m
;Layer height: 0.2
;MINX:52.2
;MINY:62.2
;MINZ:0.3
;MAXX:167.797
;MAXY:157.8
;MAXZ:21.9
;Generated with Cura_SteamEngine 4.1.0
M140 S60
M105
M190 S60
M104 S200
M105
M109 S200
M82 ;absolute extrusion mode
G21 ;metric values
G90 ;absolute positioning
M82 ;set extruder to absolute mode
M107 ;start with the fan off
G28 X0 Y0 ;move X/Y to min endstops
G28 Z0 ;move Z to min endstops
G1 Z15.0 F9000 ;move the platform down 15mm
G92 E0 ;zero the extruded length
G1 F200 E3 ;extrude 3mm of feed stock
G92 E0 ;zero the extruded length again
G1 F9000;Put printing message on LCD screen
M117 Printing..0
G92 E0
G92 E0
G1 F1500 E-6.5
;LAYER_COUNT:109
;LAYER:0
M107
G0 F3600 X55.222 Y63.834 Z0.3
;TYPE:SKIRT
G1 F1500 E0
G1 F1800 X55.87 Y63.383 E0.03939
G1 X56.561 Y62.999 E0.07883
G1 X57.286 Y62.687 E0.11821
G1 X58.039 Y62.45 E0.15759
G1 X58.813 Y62.291 E0.19701
G1 X59.598 Y62.21 E0.23638
G1 X60 Y62.2 E0.25644
G1 X76.998 Y62.2 E1.10448
G1 X78.109 Y62.28 E1.16005
G1 X78.366 Y62.317 E1.173
G1 X79.141 Y62.469 E1.21241
G1 X79.897 Y62.698 E1.25181
G1 X80.705 Y63.042 E1.29563
G1 X81.072 Y63.223 E1.31604
G1 X81.762 Y63.607 E1.35544
G1 X82.409 Y64.06 E1.39484
G1 X83.285 Y64.854 E1.45383
G1 X83.464 Y65.043 E1.46681
G1 X83.978 Y65.644 E1.50627
G1 X84.428 Y66.292 E1.54563
G1 X84.863 Y67.095 E1.59119
G1 X85.037 Y67.466 E1.61164
G1 X85.336 Y68.197 E1.65104
G1 X85.559 Y68.954 E1.69041
G1 X85.704 Y69.731 E1.72984
G1 X85.775 Y70.757 E1.78115
G1 X85.779 Y72.2 E1.85314
G1 X130.2 Y72.2 E4.06932
G1 X130.2 Y70 E4.17908
G1 X130.24 Y69.211 E4.21849
G1 X130.359 Y68.431 E4.25785
G1 X130.557 Y67.666 E4.29728
G1 X130.831 Y66.926 E4.33665
G1 X131.179 Y66.217 E4.37605
G1 X131.597 Y65.546 E4.41549
G1 X132.08 Y64.922 E4.45486
G1 X132.623 Y64.349 E4.49424
G1 X133.222 Y63.834 E4.53365
G1 X133.87 Y63.383 E4.57304
G1 X134.561 Y62.999 E4.61248
G1 X135.286 Y62.687 E4.65186
G1 X136.039 Y62.45 E4.69124
G1 X136.813 Y62.291 E4.73066
G1 X137.598 Y62.21 E4.77004
G1 X138 Y62.2 E4.7901
G1 X151.652 Y62.2 E5.4712
G1 X152.441 Y62.24 E5.51061
G1 X153.221 Y62.359 E5.54998
G1 X153.986 Y62.557 E5.5894
G1 X154.726 Y62.831 E5.62877
G1 X155.435 Y63.179 E5.66817
G1 X156.106 Y63.597 E5.70761
G1 X156.73 Y64.08 E5.74698
G1 X157.303 Y64.623 E5.78637
G1 X157.818 Y65.222 E5.82578
G1 X158.269 Y65.87 E5.86516
G1 X158.653 Y66.561 E5.9046
G1 X158.89 Y67.092 E5.93361
G1 X161.081 Y72.545 E6.2268
G1 X161.239 Y72.974 E6.24961
G1 X163.107 Y78.547 E6.54285
G1 X163.24 Y78.987 E6.56579
G1 X164.777 Y84.661 E6.85907
G1 X164.883 Y85.106 E6.88189
G1 X166.084 Y90.86 E7.17514
G1 X166.165 Y91.312 E7.19805
G1 X167.026 Y97.127 E7.49133
G1 X167.08 Y97.583 E7.51424
G1 X167.597 Y103.439 E7.80753
G1 X167.624 Y103.895 E7.83032
G1 X167.797 Y109.769 E8.1235
G1 X167.797 Y110.227 E8.14635
G1 X167.638 Y115.66 E8.41752
G1 X167.614 Y116.083 E8.43866
G1 X167.123 Y121.941 E8.73194
G1 X167.071 Y122.398 E8.75489
G1 X166.236 Y128.215 E9.04807
G1 X166.157 Y128.669 E9.07106
G1 X164.98 Y134.429 E9.36437
G1 X164.876 Y134.873 E9.38712
G1 X163.365 Y140.552 E9.6803
G1 X163.234 Y140.992 E9.70321
G1 X161.391 Y146.573 E9.99643
G1 X161.233 Y147.006 E10.01943
G1 X158.901 Y152.879 E10.33469
G1 X158.573 Y153.597 E10.37407
G1 X158.174 Y154.278 E10.41345
G1 X157.708 Y154.916 E10.45286
G1 X157.18 Y155.503 E10.49225
G1 X156.595 Y156.034 E10.53167
G1 X155.96 Y156.502 E10.57102
G1 X155.28 Y156.905 E10.61046
G1 X154.564 Y157.236 E10.64981
G1 X153.817 Y157.494 E10.68924
G1 X153.048 Y157.674 E10.72864
G1 X152.265 Y157.776 E10.76804
G1 X151.652 Y157.8 E10.79864
G1 X138 Y157.8 E11.47975
G1 X137.211 Y157.76 E11.51916
G1 X136.431 Y157.641 E11.55852
G1 X135.666 Y157.443 E11.59795
G1 X134.926 Y157.169 E11.63732
G1 X134.217 Y156.821 E11.67672
G1 X133.546 Y156.403 E11.71616
G1 X132.922 Y155.92 E11.75553
G1 X132.349 Y155.377 E11.79491
G1 X131.834 Y154.778 E11.83432
G1 X131.383 Y154.13 E11.87371
G1 X130.999 Y153.439 E11.91315
G1 X130.687 Y152.714 E11.95253
G1 X130.45 Y151.961 E11.99191
G1 X130.291 Y151.187 E12.03133
G1 X130.21 Y150.402 E12.07071
G1 X130.2 Y150 E12.09077
G1 X130.2 Y147.8 E12.20053
G1 X85.8 Y147.8 E14.41565
G1 X85.8 Y148.998 E14.47542
G1 X85.76 Y149.787 E14.51483
G1 X85.622 Y150.654 E14.55863
G1 X85.534 Y151.059 E14.57931
G1 X85.328 Y151.821 E14.61869
G1 X85.045 Y152.559 E14.65812
G1 X84.619 Y153.384 E14.70445
G1 X84.489 Y153.603 E14.71715
G1 X84.052 Y154.261 E14.75656
G1 X83.551 Y154.872 E14.79598
G1 X82.991 Y155.428 E14.83535
G1 X82.652 Y155.714 E14.85748
G1 X82.303 Y155.993 E14.87977
G1 X81.663 Y156.455 E14.91915
G1 X80.978 Y156.849 E14.95857
G1 X80.258 Y157.172 E14.99794
G1 X79.179 Y157.503 E15.05425
G1 X78.748 Y157.602 E15.07631
G1 X77.971 Y157.74 E15.11569
G1 X77.002 Y157.8 E15.16412
G1 X60 Y157.8 E16.01236
G1 X59.211 Y157.76 E16.05177
G1 X58.431 Y157.641 E16.09113
G1 X57.666 Y157.443 E16.13056
G1 X56.926 Y157.169 E16.16993
G1 X56.217 Y156.821 E16.20933
G1 X55.546 Y156.403 E16.24877
G1 X54.922 Y155.92 E16.28814
G1 X54.349 Y155.377 E16.32752
G1 X53.834 Y154.778 E16.36693
G1 X53.383 Y154.13 E16.40632
G1 X52.999 Y153.439 E16.44576
G1 X52.687 Y152.714 E16.48514
G1 X52.45 Y151.961 E16.52452
G1 X52.291 Y151.187 E16.56394
G1 X52.21 Y150.402 E16.60332
G1 X52.2 Y150 E16.62338
G1 X52.2 Y70 E20.61459
G1 X52.24 Y69.211 E20.65401
G1 X52.359 Y68.431 E20.69337
G1 X52.557 Y67.666 E20.7328
G1 X52.831 Y66.926 E20.77216
G1 X53.179 Y66.217 E20.81157
G1 X53.597 Y65.546 E20.85101
G1 X54.08 Y64.922 E20.89038
G1 X54.623 Y64.349 E20.92976
G1 X55.222 Y63.834 E20.96917
G0 F3600 X55.611 Y64.042
G1 F1800 X56.253 Y63.619 E21.00753
G1 X56.936 Y63.264 E21.04593
G1 X57.651 Y62.983 E21.08426
G1 X58.393 Y62.777 E21.12268
G1 X59.151 Y62.649 E21.16103
G1 X60 Y62.6 E21.20346
G1 X76.998 Y62.6 E22.05149
G1 X78.052 Y62.676 E22.10421
G1 X78.309 Y62.713 E22.11716
G1 X79.064 Y62.862 E22.15556
G1 X79.799 Y63.088 E22.19392
G1 X80.528 Y63.4 E22.23348
G1 X80.895 Y63.581 E22.2539
G1 X81.566 Y63.957 E22.29227
G1 X82.195 Y64.4 E22.33065
G1 X82.995 Y65.129 E22.38465
G1 X83.174 Y65.318 E22.39764
G1 X83.673 Y65.904 E22.43604
G1 X84.109 Y66.537 E22.47439
G1 X84.501 Y67.265 E22.51564
G1 X84.675 Y67.636 E22.53608
G1 X84.965 Y68.348 E22.57444
G1 X85.179 Y69.087 E22.61282
G1 X85.316 Y69.844 E22.6512
G1 X85.375 Y70.758 E22.69689
G1 X85.38 Y72.6 E22.78879
G1 X130.6 Y72.6 E25.04483
G1 X130.6 Y70 E25.17454
G1 X130.64 Y69.232 E25.21291
G1 X130.759 Y68.472 E25.25129
G1 X130.957 Y67.729 E25.28965
G1 X131.231 Y67.01 E25.32804
G1 X131.578 Y66.324 E25.36639
G1 X131.994 Y65.677 E25.40477
G1 X132.475 Y65.077 E25.44313
G1 X133.016 Y64.53 E25.48152
G1 X133.611 Y64.042 E25.51991
G1 X134.253 Y63.619 E25.55826
G1 X134.936 Y63.264 E25.59667
G1 X135.651 Y62.983 E25.63499
G1 X136.393 Y62.777 E25.67341
G1 X137.151 Y62.649 E25.71177
G1 X138 Y62.6 E25.75419
G1 X151.652 Y62.6 E26.43529
G1 X152.42 Y62.64 E26.47366
G1 X153.18 Y62.759 E26.51204
G1 X153.923 Y62.957 E26.5504
G1 X154.642 Y63.231 E26.58879
G1 X155.328 Y63.578 E26.62714
G1 X155.975 Y63.994 E26.66552
G1 X156.575 Y64.475 E26.70388
G1 X157.122 Y65.016 E26.74227
G1 X157.61 Y65.611 E26.78066
G1 X158.033 Y66.253 E26.81902
G1 X158.518 Y67.241 E26.87393
G1 X160.709 Y72.694 E27.16712
G1 X160.859 Y73.101 E27.18876
G1 X162.727 Y78.674 E27.482
G1 X162.854 Y79.091 E27.50375
G1 X164.391 Y84.765 E27.79702
G1 X164.492 Y85.188 E27.81872
G1 X165.693 Y90.942 E28.11198
G1 X165.769 Y91.37 E28.13366
G1 X166.63 Y97.185 E28.42694
G1 X166.681 Y97.618 E28.44869
G1 X167.198 Y103.474 E28.74198
G1 X167.224 Y103.907 E28.76362
G1 X167.397 Y109.781 E29.05681
G1 X167.397 Y110.215 E29.07846
G1 X167.238 Y115.648 E29.34963
G1 X167.215 Y116.05 E29.36972
G1 X166.724 Y121.908 E29.663
G1 X166.675 Y122.341 E29.68474
G1 X165.84 Y128.158 E29.97792
G1 X165.765 Y128.589 E29.99975
G1 X164.588 Y134.349 E30.29306
G1 X164.489 Y134.77 E30.31463
G1 X162.978 Y140.449 E30.60782
G1 X162.854 Y140.866 E30.62952
G1 X161.011 Y146.447 E30.92275
G1 X160.862 Y146.858 E30.94456
G1 X158.53 Y152.731 E31.25982
G1 X158.209 Y153.43 E31.29819
G1 X157.818 Y154.092 E31.33655
G1 X157.36 Y154.71 E31.37493
G1 X156.84 Y155.277 E31.41331
G1 X156.264 Y155.787 E31.45169
G1 X155.638 Y156.234 E31.49007
G1 X154.97 Y156.615 E31.52843
G1 X154.265 Y156.923 E31.56682
G1 X153.532 Y157.157 E31.6052
G1 X152.779 Y157.314 E31.64358
G1 X151.652 Y157.4 E31.69997
G1 X138 Y157.4 E32.38107
G1 X137.232 Y157.36 E32.41944
G1 X136.472 Y157.241 E32.45782
G1 X135.729 Y157.043 E32.49618
G1 X135.01 Y156.769 E32.53456
G1 X134.324 Y156.422 E32.57292
G1 X133.677 Y156.006 E32.61129
G1 X133.077 Y155.525 E32.64966
G1 X132.53 Y154.984 E32.68804
G1 X132.042 Y154.389 E32.72643
G1 X131.619 Y153.747 E32.76479
G1 X131.264 Y153.064 E32.80319
G1 X130.983 Y152.349 E32.84152
G1 X130.777 Y151.607 E32.87994
G1 X130.649 Y150.849 E32.91829
G1 X130.6 Y150 E32.96072
G1 X130.6 Y147.4 E33.09043
G1 X85.4 Y147.4 E35.34547
G1 X85.4 Y148.998 E35.4252
G1 X85.36 Y149.766 E35.46356
G1 X85.231 Y150.569 E35.50414
G1 X85.143 Y150.974 E35.52482
G1 X84.941 Y151.716 E35.56318
G1 X84.663 Y152.433 E35.60155
G1 X84.275 Y153.18 E35.64354
G1 X84.145 Y153.399 E35.65625
G1 X83.719 Y154.039 E35.69461
G1 X83.228 Y154.632 E35.73302
G1 X82.403 Y155.402 E35.78932
G1 X82.054 Y155.681 E35.81161
G1 X81.429 Y156.129 E35.84997
G1 X80.761 Y156.511 E35.88836
G1 X80.057 Y156.82 E35.92672
G1 X79.09 Y157.113 E35.97713
G1 X78.659 Y157.212 E35.99919
G1 X77.901 Y157.345 E36.03759
G1 X77.002 Y157.4 E36.08252
G1 X60 Y157.4 E36.93076
G1 X59.232 Y157.36 E36.96912
G1 X58.472 Y157.241 E37.0075
G1 X57.729 Y157.043 E37.04586
G1 X57.01 Y156.769 E37.08425
G1 X56.324 Y156.422 E37.12261
G1 X55.677 Y156.006 E37.16098
G1 X55.077 Y155.525 E37.19935
G1 X54.53 Y154.984 E37.23773
G1 X54.042 Y154.389 E37.27612
G1 X53.619 Y153.747 E37.31448
G1 X53.264 Y153.064 E37.35288
G1 X52.983 Y152.349 E37.39121
G1 X52.777 Y151.607 E37.42963
G1 X52.649 Y150.849 E37.46798
G1 X52.6 Y150 E37.51041
G1 X52.6 Y70 E41.50162
G1 X52.64 Y69.232 E41.53999
G1 X52.759 Y68.472 E41.57837
G1 X52.957 Y67.729 E41.61673
G1 X53.231 Y67.01 E41.65512
G1 X53.578 Y66.324 E41.69347
G1 X53.994 Y65.677 E41.73185
G1 X54.475 Y65.077 E41.77021
G1 X55.016 Y64.53 E41.8086
G1 X55.611 Y64.042 E41.84699
G0 F3600 X55.998 Y64.257
G1 F1800 X56.634 Y63.862 E41.88434
G1 X57.308 Y63.538 E41.92165
G1 X58.013 Y63.288 E41.95897
G1 X58.741 Y63.114 E41.99631
G1 X59.483 Y63.019 E42.03363
G1 X60 Y63 E42.05944
G1 X76.998 Y63 E42.90748
G1 X77.995 Y63.071 E42.95734
G1 X78.252 Y63.108 E42.9703
G1 X78.986 Y63.254 E43.00763
G1 X79.7 Y63.478 E43.04497
G1 X80.351 Y63.759 E43.08034
G1 X80.718 Y63.94 E43.10076
G1 X81.371 Y64.306 E43.1381
G1 X81.98 Y64.74 E43.17541
G1 X82.704 Y65.405 E43.22446
G1 X82.883 Y65.594 E43.23744
G1 X83.368 Y66.163 E43.27475
G1 X83.789 Y66.782 E43.31209
G1 X84.139 Y67.435 E43.34906
G1 X84.313 Y67.806 E43.3695
G1 X84.594 Y68.499 E43.40681
G1 X84.799 Y69.218 E43.44411
G1 X84.926 Y69.955 E43.48142
G1 X84.975 Y70.759 E43.52161
G1 X84.981 Y73 E43.63341
G1 X131 Y73 E45.92931
G1 X131 Y70 E46.07898
G1 X131.04 Y69.253 E46.1163
G1 X131.159 Y68.515 E46.15359
G1 X131.357 Y67.793 E46.19094
G1 X131.63 Y67.097 E46.22824
G1 X131.977 Y66.434 E46.26558
G1 X132.392 Y65.811 E46.30292
G1 X132.871 Y65.237 E46.34022
G1 X133.408 Y64.716 E46.37755
G1 X133.998 Y64.257 E46.41484
G1 X134.634 Y63.862 E46.4522
G1 X135.308 Y63.538 E46.4895
G1 X136.013 Y63.288 E46.52682
G1 X136.741 Y63.114 E46.56417
G1 X137.483 Y63.019 E46.60149
G1 X138 Y63 E46.6273
G1 X151.652 Y63 E47.3084
G1 X152.399 Y63.04 E47.34572
G1 X153.137 Y63.159 E47.38301
G1 X153.859 Y63.357 E47.42037
G1 X154.555 Y63.63 E47.45766
G1 X155.218 Y63.977 E47.495
G1 X155.841 Y64.392 E47.53234
G1 X156.415 Y64.871 E47.56964
G1 X156.936 Y65.408 E47.60697
G1 X157.395 Y65.998 E47.64426
G1 X157.79 Y66.634 E47.68162
G1 X158.147 Y67.39 E47.72333
G1 X160.338 Y72.843 E48.01652
G1 X160.48 Y73.228 E48.03699
G1 X162.348 Y78.801 E48.33023
G1 X162.467 Y79.196 E48.35081
G1 X164.004 Y84.87 E48.64409
G1 X164.1 Y85.27 E48.66461
G1 X165.301 Y91.024 E48.95787
G1 X165.374 Y91.429 E48.9784
G1 X166.235 Y97.244 E49.27167
G1 X166.283 Y97.653 E49.29222
G1 X166.8 Y103.509 E49.58551
G1 X166.824 Y103.919 E49.606
G1 X166.997 Y109.793 E49.89919
G1 X166.997 Y110.204 E49.91969
G1 X166.838 Y115.637 E50.19086
G1 X166.817 Y116.017 E50.20985
G1 X166.326 Y121.875 E50.50313
G1 X166.279 Y122.285 E50.52372
G1 X165.444 Y128.102 E50.8169
G1 X165.373 Y128.508 E50.83747
G1 X164.196 Y134.268 E51.13077
G1 X164.103 Y134.667 E51.15121
G1 X162.592 Y140.346 E51.4444
G1 X162.474 Y140.741 E51.46496
G1 X160.631 Y146.322 E51.75819
G1 X160.49 Y146.71 E51.77878
G1 X158.158 Y152.583 E52.09404
G1 X157.845 Y153.263 E52.13139
G1 X157.462 Y153.905 E52.16869
G1 X157.012 Y154.503 E52.20602
G1 X156.501 Y155.049 E52.24333
G1 X155.934 Y155.538 E52.28069
G1 X155.319 Y155.963 E52.31798
G1 X154.661 Y156.32 E52.35533
G1 X153.97 Y156.605 E52.39262
G1 X153.252 Y156.815 E52.42995
G1 X152.515 Y156.947 E52.4673
G1 X151.652 Y157 E52.51044
G1 X138 Y157 E53.19154
G1 X137.253 Y156.96 E53.22886
G1 X136.515 Y156.841 E53.26615
G1 X135.793 Y156.643 E53.3035
G1 X135.097 Y156.37 E53.3408
G1 X134.434 Y156.023 E53.37814
G1 X133.811 Y155.608 E53.41548
G1 X133.237 Y155.129 E53.45278
G1 X132.716 Y154.592 E53.49011
G1 X132.257 Y154.002 E53.5274
G1 X131.862 Y153.366 E53.56475
G1 X131.538 Y152.692 E53.60206
G1 X131.288 Y151.987 E53.63938
G1 X131.114 Y151.259 E53.67673
G1 X131.019 Y150.517 E53.71405
G1 X131 Y150 E53.73986
G1 X131 Y147 E53.88953
G1 X85 Y147 E56.18448
G1 X85 Y148.998 E56.28416
G1 X84.96 Y149.745 E56.32148
G1 X84.84 Y150.484 E56.35883
G1 X84.752 Y150.889 E56.37951
G1 X84.555 Y151.611 E56.41685
G1 X84.281 Y152.307 E56.45416
G1 X83.931 Y152.976 E56.49183
G1 X83.801 Y153.195 E56.50454
G1 X83.386 Y153.817 E56.54184
G1 X82.906 Y154.391 E56.57917
G1 X82.153 Y155.09 E56.63043
G1 X81.804 Y155.369 E56.65272
G1 X81.196 Y155.804 E56.69002
G1 X80.544 Y156.172 E56.72737
G1 X79.857 Y156.468 E56.76469
G1 X79 Y156.723 E56.8093
G1 X78.569 Y156.822 E56.83136
G1 X77.832 Y156.951 E56.86869
G1 X77.002 Y157 E56.91017
G1 X60 Y157 E57.75841
G1 X59.253 Y156.96 E57.79573
G1 X58.515 Y156.841 E57.83302
G1 X57.793 Y156.643 E57.87037
G1 X57.097 Y156.37 E57.90767
G1 X56.434 Y156.023 E57.945
G1 X55.811 Y155.608 E57.98235
G1 X55.237 Y155.129 E58.01965
G1 X54.716 Y154.592 E58.05698
G1 X54.257 Y154.002 E58.09427
G1 X53.862 Y153.366 E58.13162
G1 X53.538 Y152.692 E58.16893
G1 X53.288 Y151.987 E58.20625
G1 X53.114 Y151.259 E58.24359
G1 X53.019 Y150.517 E58.28091
G1 X53 Y150 E58.30673
G1 X53 Y70 E62.29794
G1 X53.04 Y69.253 E62.33526
G1 X53.159 Y68.515 E62.37256
G1 X53.357 Y67.793 E62.40991
G1 X53.63 Y67.097 E62.44721
G1 X53.977 Y66.434 E62.48454
G1 X54.392 Y65.811 E62.52189
G1 X54.871 Y65.237 E62.55919
G1 X55.408 Y64.716 E62.59651
G1 X55.998 Y64.257 E62.63381
G0 F3600 X55.799 Y64.909
G1 F1800 X56.384 Y64.479 E62.67003
G1 X57.013 Y64.115 E62.70629
G1 X57.678 Y63.822 E62.74254
G1 X58.371 Y63.604 E62.77878
G1 X59.083 Y63.464 E62.81499
G1 X60 Y63.4 E62.86085
G1 X76.998 Y63.4 E63.70888
G1 X77.938 Y63.467 E63.7559
G1 X78.195 Y63.504 E63.76885
G1 X78.908 Y63.647 E63.80513
G1 X79.6 Y63.868 E63.84137
G1 X80.174 Y64.118 E63.87261
G1 X80.541 Y64.299 E63.89302
G1 X81.174 Y64.655 E63.92926
G1 X81.764 Y65.079 E63.9655
G1 X82.414 Y65.68 E64.00967
G1 X82.593 Y65.869 E64.02266
G1 X83.063 Y66.423 E64.0589
G1 X83.469 Y67.025 E64.09513
G1 X83.776 Y67.604 E64.12782
G1 X83.95 Y67.975 E64.14827
G1 X84.222 Y68.649 E64.18453
G1 X84.418 Y69.348 E64.22075
G1 X84.536 Y70.065 E64.257
G1 X84.575 Y70.76 E64.29173
G1 X84.582 Y73.4 E64.42344
G1 X131.4 Y73.4 E66.7592
G1 X131.4 Y70 E66.92882
