;FLAVOR:Marlin
;TIME:1540
;Filament used: 1.33984m
;Layer height: 0.15
;MINX:91.21
;MINY:91.209
;MINZ:0.3
;MAXX:128.775
;MAXY:128.791
;MAXZ:18.9
;Generated with Cura_SteamEngine 4.1.0
M140 S60
M105
M190 S60
M104 S200
M105
M109 S200
M82 ;absolute extrusion mode
G21 ;metric values
G90 ;absolute positioning
M82 ;set extruder to absolute mode
M107 ;start with the fan off
G28 X0 Y0 ;move X/Y to min endstops
G28 Z0 ;move Z to min endstops
G1 Z15.0 F9000 ;move the platform down 15mm
G92 E0 ;zero the extruded length
G1 F200 E3 ;extrude 3mm of feed stock
G92 E0 ;zero the extruded length again
G1 F9000;Put printing message on LCD screen
M117 Printing..0
G92 E0
G92 E0
G1 F1500 E-6.5
;LAYER_COUNT:125
;LAYER:0
M107
G0 F3600 X96.568 Y96.848 Z0.3
;TYPE:SKIRT
G1 F1500 E0
G1 F1800 X97.258 Y96.179 E0.04795
G1 X98.287 Y95.298 E0.11553
G1 X99.052 Y94.721 E0.16334
G1 X100.181 Y93.973 E0.2309
G1 X101.01 Y93.494 E0.27867
G1 X102.222 Y92.89 E0.34623
G1 X103.109 Y92.514 E0.39429
G1 X104.386 Y92.064 E0.46184
G1 X105.305 Y91.803 E0.5095
G1 X106.63 Y91.512 E0.57718
G1 X107.583 Y91.363 E0.62531
G1 X108.931 Y91.238 E0.69285
G1 X109.893 Y91.209 E0.74086
G1 X111.246 Y91.251 E0.8084
G1 X112.2 Y91.339 E0.8562
G1 X113.54 Y91.547 E0.92385
G1 X114.472 Y91.751 E0.97145
G1 X115.773 Y92.12 E1.03891
G1 X116.686 Y92.441 E1.0872
G1 X117.933 Y92.969 E1.15476
G1 X118.791 Y93.396 E1.20257
G1 X119.964 Y94.073 E1.27014
G1 X120.773 Y94.61 E1.31858
G1 X121.855 Y95.429 E1.38629
G1 X122.569 Y96.041 E1.4332
G1 X123.541 Y96.981 E1.50066
G1 X124.2 Y97.703 E1.54943
G1 X125.049 Y98.76 E1.61707
G1 X125.599 Y99.538 E1.6646
G1 X126.313 Y100.691 E1.73226
G1 X126.767 Y101.536 E1.78012
G1 X127.332 Y102.763 E1.84751
G1 X127.683 Y103.669 E1.89599
G1 X128.092 Y104.96 E1.96355
G1 X128.323 Y105.879 E2.01083
G1 X128.573 Y107.213 E2.07854
G1 X128.691 Y108.165 E2.1264
G1 X128.775 Y109.514 E2.19383
G1 X128.775 Y110.476 E2.24182
G1 X128.693 Y111.815 E2.30875
G1 X128.575 Y112.773 E2.35691
G1 X128.323 Y114.119 E2.42523
G1 X128.092 Y115.038 E2.4725
G1 X127.684 Y116.327 E2.53996
G1 X127.333 Y117.236 E2.58857
G1 X126.767 Y118.465 E2.65607
G1 X126.313 Y119.309 E2.70389
G1 X125.599 Y120.462 E2.77155
G1 X125.046 Y121.243 E2.81929
G1 X124.196 Y122.3 E2.88696
G1 X123.543 Y123.016 E2.93531
G1 X122.572 Y123.956 E3.00273
G1 X121.855 Y124.571 E3.04986
G1 X120.773 Y125.39 E3.11756
G1 X119.965 Y125.926 E3.16593
G1 X118.794 Y126.602 E3.23339
G1 X117.936 Y127.029 E3.28121
G1 X116.687 Y127.558 E3.34888
G1 X115.773 Y127.88 E3.39722
G1 X114.472 Y128.249 E3.46469
G1 X113.54 Y128.453 E3.51229
G1 X112.2 Y128.661 E3.57994
G1 X111.246 Y128.749 E3.62774
G1 X109.893 Y128.791 E3.69527
G1 X108.931 Y128.762 E3.74329
G1 X107.583 Y128.637 E3.81083
G1 X106.63 Y128.488 E3.85895
G1 X105.305 Y128.197 E3.92663
G1 X104.386 Y127.936 E3.9743
G1 X103.109 Y127.486 E4.04185
G1 X102.222 Y127.11 E4.08991
G1 X101.01 Y126.506 E4.15747
G1 X100.181 Y126.027 E4.20524
G1 X99.052 Y125.279 E4.2728
G1 X98.287 Y124.702 E4.32061
G1 X97.258 Y123.821 E4.38819
G1 X96.568 Y123.152 E4.43614
G1 X95.656 Y122.152 E4.50366
G1 X95.053 Y121.403 E4.55163
G1 X94.27 Y120.297 E4.61924
G1 X93.763 Y119.477 E4.66734
G1 X93.123 Y118.284 E4.73488
G1 X92.722 Y117.413 E4.78272
G1 X92.233 Y116.15 E4.85029
G1 X91.943 Y115.238 E4.89803
G1 X91.613 Y113.927 E4.96548
G1 X91.436 Y112.984 E5.01335
G1 X91.269 Y111.639 E5.08097
G1 X91.21 Y110.678 E5.129
G1 X91.21 Y109.324 E5.19655
G1 X91.269 Y108.364 E5.24454
G1 X91.436 Y107.017 E5.31225
G1 X91.613 Y106.073 E5.36017
G1 X91.943 Y104.762 E5.42762
G1 X92.233 Y103.85 E5.47536
G1 X92.722 Y102.587 E5.54293
G1 X93.123 Y101.716 E5.59077
G1 X93.763 Y100.523 E5.65831
G1 X94.27 Y99.703 E5.70641
G1 X95.053 Y98.597 E5.77402
G1 X95.656 Y97.848 E5.82199
G1 X96.568 Y96.848 E5.88951
G0 F3600 X96.863 Y97.118
G1 F1800 X97.518 Y96.483 E5.93503
G1 X98.547 Y95.602 E6.00261
G1 X99.273 Y95.054 E6.04799
G1 X100.402 Y94.306 E6.11556
G1 X101.188 Y93.852 E6.16084
G1 X102.4 Y93.248 E6.2284
G1 X103.242 Y92.892 E6.27401
G1 X104.519 Y92.442 E6.34156
G1 X105.391 Y92.193 E6.3868
G1 X106.716 Y91.902 E6.45448
G1 X107.62 Y91.762 E6.50012
G1 X108.968 Y91.637 E6.56766
G1 X109.881 Y91.609 E6.61323
G1 X111.234 Y91.651 E6.68076
G1 X112.139 Y91.735 E6.72611
G1 X113.479 Y91.943 E6.79376
G1 X114.363 Y92.136 E6.8389
G1 X115.664 Y92.505 E6.90637
G1 X116.53 Y92.81 E6.95218
G1 X117.777 Y93.338 E7.01974
G1 X118.591 Y93.743 E7.0651
G1 X119.764 Y94.42 E7.13267
G1 X120.531 Y94.929 E7.17859
G1 X121.613 Y95.748 E7.24629
G1 X122.291 Y96.329 E7.29084
G1 X123.263 Y97.269 E7.3583
G1 X123.888 Y97.954 E7.40456
G1 X124.737 Y99.011 E7.4722
G1 X125.259 Y99.749 E7.5173
G1 X125.973 Y100.902 E7.58496
G1 X126.404 Y101.703 E7.63034
G1 X126.969 Y102.93 E7.69773
G1 X127.301 Y103.79 E7.74372
G1 X127.71 Y105.081 E7.81129
G1 X127.929 Y105.953 E7.85614
G1 X128.179 Y107.287 E7.92385
G1 X128.292 Y108.19 E7.96926
G1 X128.376 Y109.539 E8.03669
G1 X128.376 Y110.451 E8.08219
G1 X128.294 Y111.79 E8.14912
G1 X128.182 Y112.7 E8.19486
G1 X127.93 Y114.046 E8.26318
G1 X127.711 Y114.917 E8.30799
G1 X127.303 Y116.206 E8.37544
G1 X126.969 Y117.068 E8.42156
G1 X126.403 Y118.297 E8.48906
G1 X125.973 Y119.098 E8.53442
G1 X125.259 Y120.251 E8.60208
G1 X124.735 Y120.992 E8.64736
G1 X123.885 Y122.049 E8.71503
G1 X123.265 Y122.729 E8.76094
G1 X122.294 Y123.669 E8.82836
G1 X121.613 Y124.252 E8.87309
G1 X120.531 Y125.071 E8.94079
G1 X119.765 Y125.58 E8.98667
G1 X118.594 Y126.256 E9.05413
G1 X117.78 Y126.661 E9.09949
G1 X116.531 Y127.19 E9.16716
G1 X115.664 Y127.495 E9.21301
G1 X114.363 Y127.864 E9.28048
G1 X113.479 Y128.057 E9.32562
G1 X112.139 Y128.265 E9.39328
G1 X111.234 Y128.349 E9.43862
G1 X109.881 Y128.391 E9.50616
G1 X108.968 Y128.363 E9.55173
G1 X107.62 Y128.238 E9.61927
G1 X106.716 Y128.098 E9.66491
G1 X105.391 Y127.807 E9.73259
G1 X104.519 Y127.558 E9.77783
G1 X103.242 Y127.108 E9.84538
G1 X102.4 Y126.752 E9.89099
G1 X101.188 Y126.148 E9.95855
G1 X100.402 Y125.694 E10.00383
G1 X99.273 Y124.946 E10.0714
G1 X98.547 Y124.398 E10.11678
G1 X97.518 Y123.517 E10.18436
G1 X96.863 Y122.882 E10.22987
G1 X95.951 Y121.882 E10.2974
G1 X95.379 Y121.172 E10.34288
G1 X94.596 Y120.066 E10.41049
G1 X94.115 Y119.288 E10.45612
G1 X93.475 Y118.095 E10.52367
G1 X93.095 Y117.269 E10.56903
G1 X92.606 Y116.006 E10.6366
G1 X92.331 Y115.14 E10.68193
G1 X92.001 Y113.829 E10.74937
G1 X91.833 Y112.935 E10.79476
G1 X91.666 Y111.59 E10.86237
G1 X91.61 Y110.678 E10.90796
G1 X91.61 Y109.324 E10.97551
G1 X91.666 Y108.414 E11.021
G1 X91.833 Y107.067 E11.08871
G1 X92.001 Y106.171 E11.13419
G1 X92.331 Y104.86 E11.20164
G1 X92.606 Y103.994 E11.24697
G1 X93.095 Y102.731 E11.31454
G1 X93.475 Y101.905 E11.3599
G1 X94.115 Y100.712 E11.42745
G1 X94.596 Y99.934 E11.47308
G1 X95.379 Y98.828 E11.54069
G1 X95.951 Y98.118 E11.58617
G1 X96.863 Y97.118 E11.6537
G0 F3600 X97.159 Y97.387
G1 F1800 X97.778 Y96.787 E11.6967
G1 X98.807 Y95.906 E11.76429
G1 X99.494 Y95.388 E11.80721
G1 X100.623 Y94.64 E11.87478
G1 X101.367 Y94.21 E11.91765
G1 X102.579 Y93.606 E11.98521
G1 X103.375 Y93.269 E12.02834
G1 X104.652 Y92.819 E12.09588
G1 X105.476 Y92.584 E12.13863
G1 X106.801 Y92.293 E12.20631
G1 X107.657 Y92.16 E12.24953
G1 X109.005 Y92.035 E12.31707
G1 X109.868 Y92.008 E12.36015
G1 X111.221 Y92.05 E12.42768
G1 X112.078 Y92.13 E12.47062
G1 X113.418 Y92.338 E12.53828
G1 X114.254 Y92.521 E12.58097
G1 X115.555 Y92.89 E12.64844
G1 X116.374 Y93.178 E12.69175
G1 X117.621 Y93.706 E12.75931
G1 X118.391 Y94.089 E12.80222
G1 X119.564 Y94.766 E12.86979
G1 X120.29 Y95.248 E12.91326
G1 X121.372 Y96.067 E12.98097
G1 X122.013 Y96.616 E13.02307
G1 X122.985 Y97.556 E13.09053
G1 X123.577 Y98.204 E13.13432
G1 X124.426 Y99.261 E13.20196
G1 X124.919 Y99.96 E13.24463
G1 X125.633 Y101.113 E13.31229
G1 X126.04 Y101.87 E13.35517
G1 X126.605 Y103.097 E13.42257
G1 X126.92 Y103.911 E13.46611
G1 X127.329 Y105.202 E13.53367
G1 X127.536 Y106.027 E13.57611
G1 X127.786 Y107.361 E13.64382
G1 X127.892 Y108.215 E13.68676
G1 X127.976 Y109.564 E13.75419
G1 X127.977 Y110.427 E13.79724
G1 X127.895 Y111.766 E13.86417
G1 X127.788 Y112.626 E13.90741
G1 X127.536 Y113.972 E13.97573
G1 X127.33 Y114.796 E14.0181
G1 X126.922 Y116.085 E14.08555
G1 X126.606 Y116.901 E14.12921
G1 X126.04 Y118.13 E14.19672
G1 X125.633 Y118.887 E14.23959
G1 X124.919 Y120.04 E14.30725
G1 X124.423 Y120.742 E14.35014
G1 X123.573 Y121.799 E14.41781
G1 X122.987 Y122.441 E14.46117
G1 X122.016 Y123.381 E14.5286
G1 X121.372 Y123.933 E14.57091
G1 X120.29 Y124.752 E14.63862
G1 X119.565 Y125.233 E14.68202
G1 X118.394 Y125.909 E14.74948
G1 X117.624 Y126.293 E14.79241
G1 X116.375 Y126.822 E14.86008
G1 X115.555 Y127.11 E14.90344
G1 X114.254 Y127.479 E14.97091
G1 X113.418 Y127.662 E15.0136
G1 X112.078 Y127.87 E15.08126
G1 X111.221 Y127.95 E15.1242
G1 X109.868 Y127.992 E15.19173
G1 X109.005 Y127.965 E15.23481
G1 X107.657 Y127.84 E15.30235
G1 X106.801 Y127.707 E15.34557
G1 X105.476 Y127.416 E15.41325
G1 X104.652 Y127.181 E15.456
G1 X103.375 Y126.731 E15.52355
G1 X102.579 Y126.394 E15.56667
G1 X101.367 Y125.79 E15.63423
G1 X100.623 Y125.36 E15.6771
G1 X99.494 Y124.612 E15.74467
G1 X98.807 Y124.094 E15.78759
G1 X97.778 Y123.213 E15.85518
G1 X97.159 Y122.613 E15.89819
G1 X96.247 Y121.613 E15.96571
G1 X95.706 Y120.941 E16.00875
G1 X94.923 Y119.835 E16.07635
G1 X94.468 Y119.099 E16.11952
G1 X93.828 Y117.906 E16.18707
G1 X93.468 Y117.124 E16.23002
G1 X92.979 Y115.861 E16.29759
G1 X92.719 Y115.043 E16.34041
G1 X92.389 Y113.732 E16.40785
G1 X92.23 Y112.886 E16.4508
G1 X92.063 Y111.541 E16.51842
G1 X92.01 Y110.678 E16.56155
G1 X92.01 Y109.324 E16.62911
G1 X92.063 Y108.463 E16.67214
G1 X92.23 Y107.116 E16.73986
G1 X92.389 Y106.268 E16.7829
G1 X92.719 Y104.957 E16.85035
G1 X92.979 Y104.139 E16.89317
G1 X93.468 Y102.876 E16.96074
G1 X93.828 Y102.094 E17.00369
G1 X94.468 Y100.901 E17.07123
G1 X94.923 Y100.165 E17.1144
G1 X95.706 Y99.059 E17.18201
G1 X96.247 Y98.387 E17.22505
G1 X97.159 Y97.387 E17.29257
G0 F3600 X97.454 Y97.657
G1 F1800 X98.039 Y97.09 E17.33322
G1 X99.068 Y96.209 E17.4008
G1 X99.715 Y95.721 E17.44123
G1 X100.844 Y94.973 E17.5088
G1 X101.545 Y94.568 E17.54919
G1 X102.757 Y93.964 E17.61675
G1 X103.507 Y93.646 E17.65739
G1 X104.784 Y93.196 E17.72494
G1 X105.562 Y92.975 E17.76529
G1 X106.887 Y92.684 E17.83297
G1 X107.694 Y92.558 E17.87372
G1 X109.042 Y92.433 E17.94126
G1 X109.856 Y92.408 E17.98189
G1 X111.209 Y92.45 E18.04942
G1 X112.016 Y92.525 E18.08986
G1 X113.356 Y92.733 E18.15751
G1 X114.145 Y92.905 E18.1978
G1 X115.446 Y93.274 E18.26527
G1 X116.218 Y93.546 E18.3061
G1 X117.465 Y94.074 E18.37366
G1 X118.191 Y94.436 E18.41414
G1 X119.364 Y95.113 E18.4817
G1 X120.048 Y95.567 E18.52266
G1 X121.13 Y96.386 E18.59036
G1 X121.735 Y96.904 E18.6301
G1 X122.707 Y97.844 E18.69756
G1 X123.265 Y98.455 E18.73884
G1 X124.114 Y99.512 E18.80648
G1 X124.579 Y100.17 E18.84668
G1 X125.293 Y101.323 E18.91434
G1 X125.677 Y102.037 E18.95478
G1 X126.242 Y103.264 E19.02218
G1 X126.539 Y104.032 E19.06326
G1 X126.948 Y105.323 E19.13082
G1 X127.143 Y106.1 E19.17079
G1 X127.393 Y107.434 E19.2385
G1 X127.493 Y108.24 E19.27902
G1 X127.577 Y109.589 E19.34645
G1 X127.578 Y110.402 E19.38701
G1 X127.496 Y111.741 E19.45394
G1 X127.395 Y112.553 E19.49476
G1 X127.143 Y113.899 E19.56308
G1 X126.948 Y114.676 E19.60305
G1 X126.54 Y115.965 E19.6705
G1 X126.243 Y116.734 E19.71163
G1 X125.677 Y117.963 E19.77914
G1 X125.293 Y118.677 E19.81958
G1 X124.579 Y119.83 E19.88724
G1 X124.111 Y120.491 E19.92765
G1 X123.261 Y121.548 E19.99532
G1 X122.709 Y122.154 E20.03621
G1 X121.738 Y123.094 E20.10364
G1 X121.13 Y123.614 E20.14355
G1 X120.048 Y124.433 E20.21125
G1 X119.365 Y124.887 E20.25217
G1 X118.194 Y125.563 E20.31963
G1 X117.468 Y125.924 E20.36008
G1 X116.219 Y126.453 E20.42775
G1 X115.446 Y126.726 E20.46865
G1 X114.145 Y127.095 E20.53612
G1 X113.356 Y127.267 E20.57641
G1 X112.016 Y127.475 E20.64406
G1 X111.209 Y127.55 E20.68449
G1 X109.856 Y127.592 E20.75203
G1 X109.042 Y127.567 E20.79266
G1 X107.694 Y127.442 E20.8602
G1 X106.887 Y127.316 E20.90095
G1 X105.562 Y127.025 E20.96863
G1 X104.784 Y126.804 E21.00898
G1 X103.507 Y126.354 E21.07653
G1 X102.757 Y126.036 E21.11717
G1 X101.545 Y125.432 E21.18473
G1 X100.844 Y125.027 E21.22512
G1 X99.715 Y124.279 E21.29269
G1 X99.068 Y123.791 E21.33312
G1 X98.039 Y122.91 E21.4007
G1 X97.454 Y122.343 E21.44134
G1 X96.542 Y121.343 E21.50887
G1 X96.032 Y120.71 E21.54942
G1 X95.249 Y119.604 E21.61703
G1 X94.82 Y118.91 E21.65773
G1 X94.18 Y117.717 E21.72528
G1 X93.841 Y116.98 E21.76575
G1 X93.352 Y115.717 E21.83332
G1 X93.107 Y114.945 E21.87373
G1 X92.777 Y113.634 E21.94117
G1 X92.627 Y112.836 E21.98168
G1 X92.46 Y111.491 E22.0493
G1 X92.41 Y110.678 E22.08994
G1 X92.41 Y109.324 E22.15749
G1 X92.46 Y108.512 E22.19808
G1 X92.627 Y107.165 E22.26579
G1 X92.777 Y106.366 E22.30635
G1 X93.107 Y105.055 E22.3738
G1 X93.352 Y104.283 E22.41421
G1 X93.841 Y103.02 E22.48178
G1 X94.18 Y102.283 E22.52225
G1 X94.82 Y101.09 E22.58979
G1 X95.249 Y100.396 E22.63049
G1 X96.032 Y99.29 E22.6981
G1 X96.542 Y98.657 E22.73866
G1 X97.454 Y97.657 E22.80618
G0 F3600 X97.75 Y97.926
G1 F1800 X98.299 Y97.394 E22.84432
G1 X99.328 Y96.513 E22.9119
G1 X99.936 Y96.054 E22.94991
G1 X101.065 Y95.306 E23.01747
G1 X101.724 Y94.926 E23.05543
G1 X102.936 Y94.322 E23.12299
G1 X103.64 Y94.023 E23.16115
G1 X104.917 Y93.573 E23.2287
G1 X105.648 Y93.365 E23.26661
G1 X106.973 Y93.074 E23.33429
G1 X107.731 Y92.956 E23.37256
G1 X109.079 Y92.831 E23.44011
G1 X109.843 Y92.808 E23.47824
G1 X111.196 Y92.85 E23.54577
G1 X111.955 Y92.92 E23.5838
G1 X113.295 Y93.128 E23.65145
G1 X114.036 Y93.29 E23.6893
G1 X115.337 Y93.659 E23.75676
G1 X116.062 Y93.915 E23.79512
G1 X117.309 Y94.443 E23.86268
G1 X117.991 Y94.782 E23.90068
G1 X119.164 Y95.459 E23.96825
G1 X119.807 Y95.885 E24.00673
G1 X120.889 Y96.704 E24.07443
G1 X121.457 Y97.191 E24.11176
G1 X122.429 Y98.131 E24.17922
G1 X122.953 Y98.705 E24.21799
G1 X123.802 Y99.762 E24.28563
G1 X124.239 Y100.381 E24.32343
G1 X124.953 Y101.534 E24.39109
G1 X125.314 Y102.205 E24.42911
G1 X125.879 Y103.432 E24.4965
G1 X126.157 Y104.153 E24.53505
G1 X126.566 Y105.444 E24.60262
G1 X126.75 Y106.174 E24.64018
G1 X127 Y107.508 E24.70789
G1 X127.094 Y108.265 E24.74594
G1 X127.178 Y109.614 E24.81338
G1 X127.178 Y110.378 E24.85149
G1 X127.096 Y111.717 E24.91842
G1 X127.002 Y112.479 E24.95673
G1 X126.75 Y113.825 E25.02504
G1 X126.567 Y114.555 E25.06259
G1 X126.159 Y115.844 E25.13004
G1 X125.879 Y116.567 E25.16873
G1 X125.313 Y117.796 E25.23623
G1 X124.953 Y118.466 E25.27418
G1 X124.239 Y119.619 E25.34184
G1 X123.8 Y120.24 E25.37978
G1 X122.95 Y121.297 E25.44745
G1 X122.43 Y121.867 E25.48594
G1 X121.459 Y122.807 E25.55336
G1 X120.889 Y123.296 E25.59083
G1 X119.807 Y124.115 E25.65853
G1 X119.165 Y124.541 E25.69697
G1 X117.994 Y125.217 E25.76443
G1 X117.312 Y125.556 E25.80243
G1 X116.063 Y126.085 E25.8701
G1 X115.337 Y126.341 E25.90851
G1 X114.036 Y126.71 E25.97597
G1 X113.295 Y126.872 E26.01381
G1 X111.955 Y127.08 E26.08147
G1 X111.196 Y127.15 E26.1195
G1 X109.843 Y127.192 E26.18703
G1 X109.079 Y127.169 E26.22516
G1 X107.731 Y127.044 E26.2927
G1 X106.973 Y126.926 E26.33098
G1 X105.648 Y126.635 E26.39866
G1 X104.917 Y126.427 E26.43657
G1 X103.64 Y125.977 E26.50412
G1 X102.936 Y125.678 E26.54228
G1 X101.724 Y125.074 E26.60984
G1 X101.065 Y124.694 E26.64779
G1 X99.936 Y123.946 E26.71536
G1 X99.328 Y123.487 E26.75337
G1 X98.299 Y122.606 E26.82095
G1 X97.75 Y122.074 E26.85909
G1 X96.838 Y121.074 E26.92661
G1 X96.359 Y120.478 E26.96476
G1 X95.576 Y119.372 E27.03237
G1 X95.173 Y118.721 E27.07056
G1 X94.533 Y117.528 E27.13811
G1 X94.214 Y116.836 E27.17612
